X:1
T:Title
%%score { ( 1 4 ) | ( 2 3 ) }
L:1/8
Q:1/4=100
M:4/4
K:F
V:1 treble nm="Grand Piano"
V:4 treble 
V:2 bass 
V:3 bass 
V:1
 A2 c2 dcAF | [DB]2 [Fd]2 c4 | A2 c2 dcAF | G2 F2 [EG]4 | A2 A2 AAGA | %5
w: J.~B.~Mackay * * * * *|||||
[M:9/8] [DB]2 [DB]- [DB] [Fd]2- [Fd] [Fd]2 |[M:4/4] [Fc]c c2 c2 c[DFB] | [CFA]2 [B,EG]2 F4 | %8
w: |||
 c6 z2 | [EG]2 [EB]2 [EB]4 | B6 z2 | F2 c2 c4 | A2 A2 A2 GA |[M:9/8] B2 B- B d2- d d2 | %14
w: ||||||
[M:4/4] cc c2 c2 c[DFB] | [CFA]2 [B,EG]2 [A,CF]4 |] %16
w: ||
V:2
 [F,CF]2 [F,A,F]2 [F,B,F][F,A,F][F,CF][F,A,] | [B,,B,]2 [B,,B,]2 [F,A,F]4 | %2
 [F,CF]2 [F,A,F]2 [F,B,F][F,A,F][F,CF][F,A,] | [G,=B,F]2 [F,B,D]2 [C,C]4 | %4
 [F,CF]2 [F,CF]2 [F,CF][F,CF][F,B,F][F,CF] | %5
[M:9/8] [B,,B,]2 [B,,B,]- [B,,B,] [B,,B,]2- [B,,B,] [B,,B,]2 | %6
[M:4/4][K:treble] z F [A,CF]2 [A,CF]2 [F,A,F][K:bass]B,, | C,2 C,2 [F,A,]4 | %8
 [F,A,F]2 [F,A,]>[F,A,] [F,A,]2 [F,CF]>[F,A,C] | [C,C]2 [C,C]2 [C,C]4 | %10
 [C,C]2 [C,C]>[C,C] [C,C]2 [C,C]>[C,B,C] | [F,A,C]2[K:treble] [F,A,F]2 [F,A,F]4 | %12
 [F,CF]2 [F,CF]2 [F,CF]2 [F,B,F][F,CF] |[M:9/8] [B,DF]2 [B,DF]- [B,DF] [B,F]2- [B,F] [B,F]2 | %14
[M:4/4] [A,CF][A,CF] [A,CF]2 [A,CF]2[K:bass] [F,A,F]B,, | C,2 C,2 F,4 |] %16
V:3
 x8 | x8 | x8 | x8 | x8 |[M:9/8] x9 |[M:4/4][K:treble] [A,C]2 z2 z4[K:bass] | x8 | x8 | x8 | x8 | %11
 x2[K:treble] x6 | x8 |[M:9/8] x9 |[M:4/4] x6[K:bass] x2 | x8 |] %16
V:4
 x8 | x8 | x8 | x8 | x8 |[M:9/8] x9 |[M:4/4] x8 | x8 | z2 F>F F2 A>F | x8 | E2 E>E E2 [EG]>E | x8 | %12
 x8 |[M:9/8] x9 |[M:4/4] x8 | x8 |] %16

